src/images/svg/symbols/terra.svg

<svg width="33" height="32" viewBox="0 0 33 32" fill="none" xmlns="http://www.w3.org/2000/svg">
<g clip-path="url(#clip0_10139_45571)">
<path d="M16.5 32C25.3366 32 32.5 24.8366 32.5 16C32.5 7.16344 25.3366 0 16.5 0C7.66344 0 0.5 7.16344 0.5 16C0.5 24.8366 7.66344 32 16.5 32Z" fill="#172852"/>
<path d="M13.3894 7.15014C15.263 6.44934 17.3718 6.44774 19.2806 7.02374C21.7654 7.79494 23.863 9.67014 24.959 12.0237C25.2614 12.6941 25.551 13.3933 25.5798 14.1389C24.183 13.3293 22.6518 12.8045 21.1174 12.3261C18.663 11.4413 16.0934 10.8269 13.7702 9.61094C13.2294 9.28774 12.5398 8.95654 12.3926 8.28294C12.3334 7.70054 12.9494 7.37574 13.3894 7.15014Z" fill="#FFD83D"/>
<path d="M7.73284 12.8141C8.27524 11.3421 9.16484 9.97569 10.3728 8.96289C10.68 11.4893 11.7552 13.9309 13.5312 15.7677C15.6608 17.9805 18.6944 19.3389 21.7808 19.2877C23.0064 19.3261 24.2048 19.0429 25.4 18.8141C24.224 23.0637 19.5664 25.8845 15.2512 25.2061C12.6464 24.8733 10.2416 23.3309 8.79044 21.1533C7.15364 18.7469 6.74084 15.5517 7.73284 12.8141Z" fill="#FFD83D"/>
<path d="M21.1152 12.3264C22.6496 12.8048 24.1808 13.3296 25.5776 14.1392L25.672 14.1888C25.8016 15.1632 25.896 16.1568 25.7232 17.1328C25.0208 16.8352 24.4512 16.312 23.856 15.8496C22.7104 14.896 21.5408 13.8048 21.1152 12.3264Z" fill="#FF6F03"/>
</g>
<defs>
<clipPath id="clip0_10139_45571">
<rect width="32" height="32" fill="white" transform="translate(0.5)"/>
</clipPath>
</defs>
</svg>

<svg width="33" height="32" fill="none" xmlns="http://www.w3.org/2000/svg"><g clip-path="url(#a)"><path d="M16.5 32c8.837 0 16-7.163 16-16s-7.163-16-16-16S.5 7.163.5 16s7.163 16 16 16Z" fill="#172852"/><path d="M13.39 7.15c1.873-.7 3.982-.702 5.89-.126 2.485.77 4.583 2.646 5.679 5 .302.67.592 1.37.62 2.115-1.396-.81-2.927-1.334-4.462-1.813-2.454-.885-5.024-1.5-7.347-2.715-.54-.323-1.23-.654-1.377-1.328-.06-.582.556-.907.996-1.133ZM7.733 12.814c.542-1.472 1.432-2.838 2.64-3.851.307 2.526 1.382 4.968 3.158 6.805 2.13 2.212 5.163 3.57 8.25 3.52 1.225.038 2.424-.245 3.619-.474-1.176 4.25-5.834 7.07-10.149 6.392-2.605-.333-5.01-1.875-6.46-4.053-1.637-2.406-2.05-5.601-1.058-8.339Z" fill="#FFD83D"/><path d="M21.115 12.326c1.535.479 3.066 1.004 4.463 1.813l.094.05c.13.974.224 1.968.051 2.944-.702-.298-1.272-.821-1.867-1.283-1.146-.954-2.315-2.045-2.74-3.524Z" fill="#FF6F03"/></g><defs><clipPath id="a"><path fill="#fff" transform="translate(.5)" d="M0 0h32v32H0z"/></clipPath></defs></svg>
